icons/24x24_money_outline.svg

<svg xmlns="http://www.w3.org/2000/svg" width="24" height="24" viewBox="0 0 24 24">
  <path d="M20,8 C21.1045695,8 22,8.8954305 22,10 L22,18 C22,19.1045695 21.1045695,20 20,20 L8,20 C6.8954305,20 6,19.1045695 6,18 L20,18 L20,8 Z M4,4 L16,4 C17.1045695,4 18,4.8954305 18,6 L18,14 C18,15.1045695 17.1045695,16 16,16 L4,16 C2.8954305,16 2,15.1045695 2,14 L2,6 C2,4.8954305 2.8954305,4 4,4 Z M4,6 L4,14 L16,14 L16,6 L4,6 Z M10,12.5 C8.61928813,12.5 7.5,11.3807119 7.5,10 C7.5,8.61928813 8.61928813,7.5 10,7.5 C11.3807119,7.5 12.5,8.61928813 12.5,10 C12.5,11.3807119 11.3807119,12.5 10,12.5 Z"/>
</svg>

<svg width="24" height="24" fill="none" xmlns="http://www.w3.org/2000/svg"><path d="M20 8a2 2 0 0 1 2 2v8a2 2 0 0 1-2 2H8a2 2 0 0 1-2-2h14V8ZM4 4h12a2 2 0 0 1 2 2v8a2 2 0 0 1-2 2H4a2 2 0 0 1-2-2V6a2 2 0 0 1 2-2Zm0 2v8h12V6H4Zm6 6.5a2.5 2.5 0 1 1 0-5 2.5 2.5 0 0 1 0 5Z" fill="#000"/></svg>
